docs/.gitbook/assets/icon-center-16@dark.svg

<svg width="32" height="32" viewBox="0 0 16 16" fill="none" xmlns="http://www.w3.org/2000/svg">
<rect x="0" y="0" width="16" height="16" fill="#181c1f"/>
<path fill-rule="evenodd" clip-rule="evenodd" d="M1 3.75C1 2.23122 2.23122 1 3.75 1H4.875C5.28921 1 5.625 1.33579 5.625 1.75C5.625 2.16421 5.28921 2.5 4.875 2.5H3.75C3.05964 2.5 2.5 3.05964 2.5 3.75V4.875C2.5 5.28921 2.16421 5.625 1.75 5.625C1.33579 5.625 1 5.28921 1 4.875V3.75ZM10.375 1.75C10.375 1.33579 10.7108 1 11.125 1H12.25C13.7688 1 15 2.23122 15 3.75V4.875C15 5.28921 14.6642 5.625 14.25 5.625C13.8358 5.625 13.5 5.28921 13.5 4.875V3.75C13.5 3.05964 12.9404 2.5 12.25 2.5H11.125C10.7108 2.5 10.375 2.16421 10.375 1.75ZM8 4C8.41421 4 8.75 4.33579 8.75 4.75V7.25H11.25C11.6642 7.25 12 7.58579 12 8C12 8.41421 11.6642 8.75 11.25 8.75H8.75V11.25C8.75 11.6642 8.41421 12 8 12C7.58579 12 7.25 11.6642 7.25 11.25V8.75H4.75C4.33579 8.75 4 8.41421 4 8C4 7.58579 4.33579 7.25 4.75 7.25H7.25V4.75C7.25 4.33579 7.58579 4 8 4ZM1.75 10.375C2.16421 10.375 2.5 10.7108 2.5 11.125V12.25C2.5 12.9404 3.05964 13.5 3.75 13.5H4.875C5.28921 13.5 5.625 13.8358 5.625 14.25C5.625 14.6642 5.28921 15 4.875 15H3.75C2.23122 15 1 13.7688 1 12.25V11.125C1 10.7108 1.33579 10.375 1.75 10.375ZM14.25 10.375C14.6642 10.375 15 10.7108 15 11.125V12.25C15 13.7688 13.7688 15 12.25 15H11.125C10.7108 15 10.375 14.6642 10.375 14.25C10.375 13.8358 10.7108 13.5 11.125 13.5H12.25C12.9404 13.5 13.5 12.9404 13.5 12.25V11.125C13.5 10.7108 13.8358 10.375 14.25 10.375Z" fill="#fff"/>
</svg>

<svg xmlns="http://www.w3.org/2000/svg" width="32" height="32" fill="none" viewBox="0 0 16 16"><path fill="#181c1f" d="M0 0h16v16H0z"/><path fill="#fff" fill-rule="evenodd" d="M1 3.75A2.75 2.75 0 0 1 3.75 1h1.125a.75.75 0 0 1 0 1.5H3.75c-.69 0-1.25.56-1.25 1.25v1.125a.75.75 0 0 1-1.5 0zm9.375-2a.75.75 0 0 1 .75-.75h1.125A2.75 2.75 0 0 1 15 3.75v1.125a.75.75 0 0 1-1.5 0V3.75c0-.69-.56-1.25-1.25-1.25h-1.125a.75.75 0 0 1-.75-.75M8 4a.75.75 0 0 1 .75.75v2.5h2.5a.75.75 0 0 1 0 1.5h-2.5v2.5a.75.75 0 0 1-1.5 0v-2.5h-2.5a.75.75 0 0 1 0-1.5h2.5v-2.5A.75.75 0 0 1 8 4m-6.25 6.375a.75.75 0 0 1 .75.75v1.125c0 .69.56 1.25 1.25 1.25h1.125a.75.75 0 0 1 0 1.5H3.75A2.75 2.75 0 0 1 1 12.25v-1.125a.75.75 0 0 1 .75-.75m12.5 0a.75.75 0 0 1 .75.75v1.125A2.75 2.75 0 0 1 12.25 15h-1.125a.75.75 0 0 1 0-1.5h1.125c.69 0 1.25-.56 1.25-1.25v-1.125a.75.75 0 0 1 .75-.75" clip-rule="evenodd"/></svg>
